Hatter-kde-dark/actions/22/view-table-of-contents-rtl.svg

<svg xmlns="http://www.w3.org/2000/svg" viewBox="0 0 22 22">
  <defs id="defs3051">
    <style type="text/css" id="current-color-scheme">
      .ColorScheme-Text {
        color:#dedede;
      }
      </style>
  </defs>
 <path 
    style="fill:currentColor;fill-opacity:1;stroke:none" 
    d="M 3 2.9980469 L 3 3.9980469 L 13 3.9980469 L 13 2.9980469 L 3 2.9980469 z M 16 3 L 16 4 L 17 4 L 17 6 L 16 6 L 16 7 L 17 7 L 18 7 L 19 7 L 19 6 L 18 6 L 18 4 L 19 4 L 19 3 L 18 3 L 17 3 L 16 3 z M 3 4.9980469 L 3 5.9980469 L 9 5.9980469 L 9 4.9980469 L 3 4.9980469 z M 10 4.9980469 L 10 5.9980469 L 11 5.9980469 L 11 4.9980469 L 10 4.9980469 z M 12 4.9980469 L 12 5.9980469 L 13 5.9980469 L 13 4.9980469 L 12 4.9980469 z M 14 4.9980469 L 14 5.9980469 L 15 5.9980469 L 15 4.9980469 L 14 4.9980469 z M 3 8.9980469 L 3 9.9980469 L 11 9.9980469 L 11 8.9980469 L 3 8.9980469 z M 14 9 L 14 10 L 15 10 L 15 12 L 14 12 L 14 13 L 19 13 L 19 12 L 18 12 L 18 10 L 19 10 L 19 9 L 14 9 z M 16 10 L 17 10 L 17 12 L 16 12 L 16 10 z M 3 10.998047 L 3 11.998047 L 7 11.998047 L 7 10.998047 L 3 10.998047 z M 8 10.998047 L 8 11.998047 L 9 11.998047 L 9 10.998047 L 8 10.998047 z M 10 10.998047 L 10 11.998047 L 11 11.998047 L 11 10.998047 L 10 10.998047 z M 12 10.998047 L 12 11.998047 L 13 11.998047 L 13 10.998047 L 12 10.998047 z M 3 14.998047 L 3 15.998047 L 10 15.998047 L 10 14.998047 L 3 14.998047 z M 12 15 L 12 16 L 13 16 L 13 18 L 12 18 L 12 19 L 13 19 L 14 19 L 15 19 L 19 19 L 19 18 L 18 18 L 18 16 L 19 16 L 19 15 L 15 15 L 14 15 L 13 15 L 12 15 z M 14 16 L 15 16 L 15 18 L 14 18 L 14 16 z M 16 16 L 17 16 L 17 18 L 16 18 L 16 16 z M 3 16.998047 L 3 17.998047 L 5 17.998047 L 5 16.998047 L 3 16.998047 z M 6 16.998047 L 6 17.998047 L 7 17.998047 L 7 16.998047 L 6 16.998047 z M 8 16.998047 L 8 17.998047 L 9 17.998047 L 9 16.998047 L 8 16.998047 z M 10 16.998047 L 10 17.998047 L 11 17.998047 L 11 16.998047 L 10 16.998047 z "
	class="ColorScheme-Text"
    />  
</svg>

<?xml version="1.0" encoding="UTF-8"?>
<svg viewBox="0 0 22 22" xmlns="http://www.w3.org/2000/svg">
 <defs id="defs3051">
  <style id="current-color-scheme" type="text/css">.ColorScheme-Text {
        color:#dedede;
      }</style>
 </defs>
 <path class="ColorScheme-Text" d="m3 2.998v1h10v-1h-10zm13 0.0019531v1h1v2h-1v1h1 1 1v-1h-1v-2h1v-1h-1-1-1zm-13 1.998v1h6v-1h-6zm7 0v1h1v-1h-1zm2 0v1h1v-1h-1zm2 0v1h1v-1h-1zm-11 4v1h8v-1h-8zm11 0.0019531v1h1v2h-1v1h5v-1h-1v-2h1v-1h-5zm2 1h1v2h-1v-2zm-13 0.99805v1h4v-1h-4zm5 0v1h1v-1h-1zm2 0v1h1v-1h-1zm2 0v1h1v-1h-1zm-9 4v1h7v-1h-7zm9 0.001953v1h1v2h-1v1h1 1 1 4v-1h-1v-2h1v-1h-4-1-1-1zm2 1h1v2h-1v-2zm2 0h1v2h-1v-2zm-13 0.99805v1h2v-1h-2zm3 0v1h1v-1h-1zm2 0v1h1v-1h-1zm2 0v1h1v-1h-1z" fill="currentColor"/>
</svg>
